X:1
T:Title
%%score { ( 1 3 ) | ( 2 4 ) }
L:1/8
M:4/4
K:G
V:1 treble nm="Grand Piano"
V:3 treble 
V:2 treble 
V:4 treble 
V:1
 z4 z2[Q:1/4=106] G2 | B2 d2 c2 B2 | [DEB]4 [CEA]2 E2 | G3 G G2 [FA]2 |[M:3/4] B6 |[M:1/4] B2 | %6
[M:4/4] A3 E F2 G2 | B4 A2 A2 | B2 d2 [Gd]2 [G^c]2 |[M:3/4] [Fd]6 |[M:1/4] D2 |[M:4/4] A3 B c2 d2 | %12
 c4 z4 | [^GB]2 [Gd]2 [EGc]2 [DGB]2 |[M:3/4] [CA]6 |[M:1/4] [CGA]2 | %16
[M:4/4] [CFA]3 [Fc] [DFB]2 [DFA]2 | [DGd]4 [B,G]2 [CGA]2 | [DGB]2 [EGc]2 [DFB]3 [CFA] | G8 | %20
 B3 B B2 e2 | [Ad]4 [DFA]2 [CFB]2 | [B,G]3 [B,FG] [CEG]2 [Ec]2 |[M:3/4] B4 A2 |[M:1/4] [DA]2 | %25
[M:4/4] [Dd]3 [DB] [DG]2 [=FG]2 | [Ee]3 [EB] [Ed]2 [EAc]2 | [DGB]4 [CFA]4 |[M:3/4] [B,G]6 |] %29
V:2
 z4 z2 [G,B,]2 | [G,DG]2 [G,B,G]2 [G,EG]2 [G,DG]2 | C,4 C,2 [C,A,]2 | %3
 [D,B,D]3 [D,B,D] [D,A,D]2 [D,D]2 |[M:3/4][K:treble] [G,DG]6 |[M:1/4] [G,DF]2 | %6
[M:4/4] [G,^CE]3 [G,A,C] [G,A,C]2[K:bass] [G,A,C]2 | [F,A,D]4 [F,A,D]2 [F,A,D]2 | %8
 [G,D]2 [F,A,D]2 [E,B,]2 [A,,A,]2 |[M:3/4] [D,A,]6 |[M:1/4] D,2 | %11
[M:4/4] [D,F,D]3 [D,G,D] [D,A,D]2 [D,B,D]2 | E2 z2 z4 | [E,D]2 [E,B,]2 E,2 E,2 |[M:3/4] A,,6 | %15
[M:1/4] A,,2 |[M:4/4] D,3 [D,A,] D,2 C,2 | B,,4 E,2 E,2 | D,2 D,2 D,3 D, | [G,B,]8 | %20
 [G,DG]3 [G,DG] [G,DG]2 [G,B,G]2 | [F,A,]4 D,2 D,2 | E,3 D, C,2 [C,G,]2 |[M:3/4] [D,D]6 | %24
[M:1/4] [C,F,]2 |[M:4/4] [B,,G,]3 [B,,G,] [B,,G,]2 [B,,G,]2 | [C,G,]3 [C,^G,] [C,A,]2 C,2 | %27
 D,4 D,4 |[M:3/4] G,,6 |] %29
V:3
 x8 | x8 | x8 | x8 |[M:3/4] x6 |[M:1/4] x2 |[M:4/4] x8 | x8 | x8 |[M:3/4] x6 |[M:1/4] x2 | %11
[M:4/4] x8 | z2 F2 B2 [AB]2 | x8 |[M:3/4] x6 |[M:1/4] x2 |[M:4/4] x8 | x8 | x8 | x8 | x8 | x8 | %22
 x8 |[M:3/4] x6 |[M:1/4] x2 |[M:4/4] x8 | x8 | x8 |[M:3/4] x6 |] %29
V:4
 x8 | x8 | x8 | x8 |[M:3/4][K:treble] x6 |[M:1/4] x2 |[M:4/4] x6[K:bass] x2 | x8 | x8 |[M:3/4] x6 | %10
[M:1/4] x2 |[M:4/4] x8 | [D,A,]4 [G,G]2 [=F,D]2 | x8 |[M:3/4] x6 |[M:1/4] x2 |[M:4/4] x8 | x8 | %18
 x8 | x8 | x8 | x8 | x8 |[M:3/4] G,4 F,2 |[M:1/4] x2 |[M:4/4] x8 | x8 | x8 |[M:3/4] x6 |] %29

